X:34
T:Mon pauvre amant
R:Valse
C:trad
O:France
M:3/4
L:1/4
Q:1/4=220
K:G
DEF|GGG|GEF|G3|GAB|ABA|GFE|1D3:|2D2B|
|B2A|G3|F3|GAB|c2c|B2B|A2A|G3|F3|DGA|B2A|G3|G3||
